X:1
T:Title
%%score { 1 | 2 | 3 }
L:1/8
Q:1/4=120
M:2/2
K:G
V:1 treble nm="Part_1"
V:2 treble 
V:3 treble 
V:1
 b4 g4 | e4 f4 | b4 g4 | e4 _e4 | d8- | d8 | e8 | B2 A2- A4 | z2 c2 d2 c2 | e2 ^c2 ^A4 | B4 ^G4 | %11
 =G4 G2 A2 | B4 B4 | B2 e2- e2 d2 | G4 G4 | G2 d2- d2 c2 | B6 z2 | c2 B2 A2 G2 | A8 | A4 ^A4 | B8 | %21
 c2 B2 ^A2 B2 | c8 | ^c2 d2- d4 | z2 e2 f2 g2 | a2 g2 f2 e2 | d8 | c4 E2 F2 | G4 G4 | %29
 A2 c2- c2 B2 |[I:staff +1] g8- | g4 G2 A2 |[I:staff -1] G4 A4 | c2 D2- D2 F2 | D8 | c4 f4 | %36
 b4 g4 | e4 f4 | b4 g4 | e4 _e4 | d8 |] %41
V:2
 d4 B4 | G4 c4 | d4 B4 | G4 A4 | B8 | c2 B2 ^A2 B2 | c8 | ^c2 d2- d4 | z2 e2 f2 g2 | a2 g2 f2 e2 | %10
 d8 | c8 | G8 | F2 B2- B2 A2 | E8 | _E2 c2 _B2 A2 | F6 z2 | ^G4 =G4 | G6 E2 | F8 | G6 A2 | %21
 G4 F2 G2 | A8 | B2 A2- A4 | z2 c2 d2 c2 | e2 ^c2 ^A4 | B4 ^G4 | =G4 G2 A2 | B4 B4 | B2 e2- e2 d2 | %30
[I:staff +1] _B8 |[I:staff -2] _e4 G2 A2 |[I:staff +1] B4 B4 | e2 F2- F2 A2 | G8 | A4 c4 | d4 B4 | %37
 G4 c4 | d4 B4 | G4 A4 | G8 |] %41
V:3
 G4 E4 | C4 D4 | G4 E4 | C4 F4 | G6 A2 | G4 F2 G2 | A4 E4 | A2 F2 D4 | z2 A2 D4 | ^c4 F4 | F4 E4 | %11
 A4 D4 | D4 F4 | D2 F2- F2 F2 | C4 D4 | C2 _E2- E2 F2 | D6 z2 | E8 | E8 | C8 | F4 D4 | E4 D4 | %22
 E4 G4 | A2 F2 D4 | z2 A2 D4 | ^c4 F4 | F4 E4 | A4 D4 | F4 E4 | D2 =F2- F2 G2 | x8 | A4 G2 F2 | %32
 D4 D4 | A2 D2- D2 C2 | B,8 | E4 A2 ^A2 | G4 E4 | C4 D4 | G4 E4 | C4 F4 | B,8 |] %41

